svg/color/slr.svg

<svg height="32" viewBox="0 0 32 32" width="32" xmlns="http://www.w3.org/2000/svg"><g fill="none" fill-rule="evenodd"><circle cx="16" cy="16" fill="#fda616" r="16"/><path d="m11.9213042 22c.1162243.363598 1.5651813 1.8635453 3.071238 1.8635453 2.2341798 0 3.539375-1.3476748 3.539375-3.2972688 0-1.8066013-.903877-2.8387641-3.1878673-3.842244-2.7610364-1.1182116-4.4679547-2.7527154-4.4679547-5.4767479 0-3.01086153 2.1839644-5.2472846 5.4718575-5.2472846 1.732026 0 3.4867298 1.09079405 4.0686614 1.81799009l-1.3967167 1.45481387c-.5519643-.34419487-1.2148885-1.20847832-2.7472678-1.20847832-2.308288 0-3.1878672 1.57713803-3.1878672 2.89612996 0 1.8066012 1.0294155 2.6953495 3.3636211 3.7275123 2.8614672 1.2616261 4.3173086 2.8387641 4.3173086 5.6775283 0 2.9821786-1.9438215 5.6345038-5.935135 5.6345038-1.6315952 0-3.3749601-1.0907941-4.422194-2.4241274zm1.862019-10.3030686c-.3490779-.7271961-.1166293-1.4543921-.1166293-1.4543921 8.8443879-1.4548139 7.2152225 7.1513234 7.2152225 7.1513234-.6981559-1.3333333-1.3963118-1.5754508-1.3963118-1.5754508.1162243-4.9701571-5.7022814-4.1214805-5.7022814-4.1214805zm3.9564867 7.8789412c.3511028.8486766-.05386 1.7319414-.05386 1.7319414-10.07061527 1.2983233-7.350885-7.9093114-7.3529098-7.9093114.533741 1.4130549 1.19788 1.7441738 1.19788 1.7441738-.1895226 5.7665295 6.2088898 4.4331962 6.2088898 4.4331962z" fill="#fff" fill-rule="nonzero"/></g></svg>

<svg xmlns="http://www.w3.org/2000/svg" width="32" height="32" viewBox="0 0 32 32">
  <g fill="none" fill-rule="evenodd">
    <circle cx="16" cy="16" r="16" fill="#FDA616"/>
    <path fill="#FFF" fill-rule="nonzero" d="M11.9213042,22 C12.0375285,22.363598 13.4864855,23.8635453 14.9925422,23.8635453 C17.226722,23.8635453 18.5319172,22.5158705 18.5319172,20.5662765 C18.5319172,18.7596752 17.6280402,17.7275124 15.3440499,16.7240325 C12.5830135,15.6058209 10.8760952,13.9713171 10.8760952,11.2472846 C10.8760952,8.23642307 13.0600596,6 16.3479527,6 C18.0799787,6 19.8346825,7.09079405 20.4166141,7.81799009 L19.0198974,9.27280396 C18.4679331,8.92860909 17.8050089,8.06432564 16.2726296,8.06432564 C13.9643416,8.06432564 13.0847624,9.64146367 13.0847624,10.9604556 C13.0847624,12.7670568 14.1141779,13.6558051 16.4483835,14.6879679 C19.3098507,15.949594 20.7656921,17.526732 20.7656921,20.3654962 C20.7656921,23.3476748 18.8218706,26 14.8305571,26 C13.1989619,26 11.455597,24.9092059 10.4083631,23.5758726 L11.9213042,22 Z M13.7833232,11.6969314 C13.4342453,10.9697353 13.6666939,10.2425393 13.6666939,10.2425393 C22.5110818,8.7877254 20.8819164,17.3938627 20.8819164,17.3938627 C20.1837605,16.0605294 19.4856046,15.8184119 19.4856046,15.8184119 C19.6018289,10.8482548 13.7833232,11.6969314 13.7833232,11.6969314 Z M17.7398099,19.5758726 C18.0909127,20.4245492 17.6859499,21.307814 17.6859499,21.307814 C7.61533463,22.6061373 10.3350649,13.3985026 10.3330401,13.3985026 C10.8667811,14.8115575 11.5309201,15.1426764 11.5309201,15.1426764 C11.3413975,20.9092059 17.7398099,19.5758726 17.7398099,19.5758726 Z"/>
  </g>
</svg>
